X:1
T:BWV1007
T:J. S. Bach
%%score ( 1 2 )
L:1/8
M:4/4
K:G
V:1 bass nm="Violoncello" snm="Vc."
V:2 bass 
V:1
 G,,/D,/B,/A,/ B,/D,/B,/D,/ G,,/D,/B,/A,/ B,/D,/B,/D,/ | %1
 G,,/E,/C/B,/ C/E,/C/E,/ G,,/E,/C/B,/ C/E,/C/E,/ | %2
 G,,/F,/C/B,/ C/F,/C/F,/ G,,/F,/C/B,/ C/F,/C/F,/ | %3
 G,,/G,/B,/A,/ B,/G,/B,/G,/ G,,/G,/B,/A,/ B,/G,/B,/F,/ | %4
 G,,/E,/B,/A,/ B,/G,/F,/G,/ E,/G,/F,/G,/ B,,/D,/^C,/B,,/ | %5
 ^C,/G,/A,/G,/ A,/G,/A,/G,/ C,/G,/A,/G,/ A,/G,/A,/G,/ | %6
 F,/A,/D/^C/ D/A,/G,/A,/ F,/A,/G,/A,/ D,/F,/E,/D,/ | %7
 E,,/B,,/G,/F,/ G,/B,,/G,/B,,/ E,,/B,,/G,/F,/ G,/B,,/G,/B,,/ | %8
 E,,/^C,/D,/E,/ D,/C,/B,,/A,,/ G,/F,/E,/D/ ^C/B,/A,/G,/ | %9
 F,/E,/D,/D/ A,/D/F,/A,/ D,/E,/F,/A,/ G,/F,/E,/D,/ | %10
 ^G,/D,/=F,/E,/ F,/D,/G,/D,/ B,/D,/F,/E,/ F,/D,/G,/D,/ | %11
 C,/E,/A,/B,/ C/A,/E,/D,/ C,/E,/A,/B,/ C/A,/F,/E,/ | %12
 ^D,/F,/D,/F,/ A,/F,/A,/F,/ D,/F,/D,/F,/ A,/F,/A,/F,/ | %13
 G,/F,/E,/G,/ F,/G,/A,/F,/ G,/F,/E,/D,/ C,/B,,/A,,/G,,/ | %14
 F,,/C,/D,/C,/ D,/C,/D,/C,/ F,,/C,/D,/C,/ D,/C,/D,/C,/ | %15
 G,,/B,,/=F,/E,/ F,/B,,/F,/B,,/ G,,/B,,/F,/E,/ F,/B,,/F,/B,,/ | %16
 G,,/C,/E,/D,/ E,/C,/E,/C,/ G,,/C,/E,/D,/ E,/C,/E,/C,/ | %17
 G,,/F,/C/B,/ C/F,/C/F,/ G,,/F,/C/B,/ C/F,/C/F,/ | %18
 G,,/D,/B,/A,/ B,/G,/F,/E,/ D,/C,/B,,/A,,/ G,,/F,,/E,,/D,,/ | %19
 ^C,,/A,,/E,/F,/ G,/E,/F,/G,/ C,,/A,,/E,/F,/ G,/E,/F,/G,/ | %20
 C,,/A,,/D,/E,/ F,/D,/E,/F,/ C,,/A,,/D,/E,/ F,/D,/E,/F,/ | %21
 C,,/A,,/D,/F,/ A,/^C/D- D/A,,/B,,/C,/ D,/E,/F,/G,/ | %22
 A,/F,/D,/E,/ F,/G,/A,/B,/ C/A,/F,/G,/ A,/B,/C/D/ | %23
 ^D/=D/^C/D/ D/=C/B,/C/ C/A,/F,/E,/ D,/A,,/B,,/C,/ | %24
 D,,/A,,/D,/F,/ A,/B,/C/A,/ B,/G,/D,/C,/ B,,/G,,/A,,/B,,/ | %25
 D,,/G,,/B,,/D,/ G,/A,/B,/G,/ ^C/B,/A,/^A,/ A,/=A,/^G,/A,/ | %26
 A,/G,/F,/G,/ G,/E,/^C,/B,,/ A,,/C,/E,/G,/ A,/^C/D/C/ | %27
 D/A,/F,/E,/ F,/A,/D,/F,/ A,,/D,/^C,/B,,/ A,,/G,,/F,,/E,,/ | %28
 D,,C/B,/ A,/G,/F,/E,/ D,/C/B,/A,/ G,/F,/E,/D,/ | %29
 C,/B,/A,/G,/ F,/E,/D,/C,/ B,,/A,/G,/F,/ E,/D,/C,/B,,/ | %30
 A,,/G,/F,/E,/ F,/A,/D,/A,/ E,/A,/F,/A,/ G,/A,/E,/A,/ | %31
 F,/A,/D,/A,/ G,/A,/E,/A,/ F,/A,/D,/A,/ G,/A,/E,/A,/ | %32
 F,/A,/D,/A,/ E,/A,/F,/A,/ G,/A,/A,/A,/ B,/A,/D,/A,/ | %33
 A,/A,/B,/A,/ C/A,/D,/A,/ B,/A,/C/A,/ D/A,/B,/A,/ | %34
 C/A,/B,/A,/ C/A,/A,/A,/ B,/A,/A,/A,/ B,/A,/G,/A,/ | %35
 A,/A,/G,/A,/ A,/A,/F,/A,/ G,/A,/F,/A,/ G,/A,/E,/A,/ | %36
 F,/A,/D,/E,/ =F,/D,/^F,/D,/ G,/D,/^G,/D,/ A,/D,/^A,/D,/ | %37
 B,/D,/C/D,/ ^C/D,/D/D,/ ^D/D,/E/D,/ =F/D,/^F/D,/ | G/B,/D,/B,/ G/B,/G/B,/ G/B,/D,/B,/ G/B,/G/B,/ | %39
 G/A,/D,/A,/ G/A,/G/A,/ G/A,/D,/A,/ G/A,/G/A,/ | F/C/D,/C/ F/C/F/C/ F/C/D,/C/ F/C/F/C/ | %41
 [G,,B,G]8 | z2 z2 z2 z z/ B,/ | B,2- B,/A,/G,/F,/ G,/D,/E,/F,/ G,/A,/B,/C/ | %44
 D/B,/G,/F,/ G,/E,/D,/C,/ B,,/C,/D,/E,/ F,/G,/A,/B,/ | %45
 C/A,/G,/F,/ G,/E,/F,/G,/ A,,/D,/F,/G,/ A,/B,/C/A,/ | %46
 B,/G,/G,/D,/ D,/B,,/B,,/G,,/ G,,>B, C/B,/A,/G,/ | A,/B,/C/A,/ G,/F,/G,/A,/ _E,>C B,/A,/G,/F,/ | %48
 G,/E,/E,/B,,/ B,,/G,,/G,,/E,,/ E,,>B,, E,/G,/F,/A,/ | %49
 G,/F,/E,/F,/ G,/^C/G,/F,/ G,/C/E,/F,/ G,/E,/A,,/G,/ | %50
 F,D,/E,/ F,/D,/G,/E,/ F,/D,/F,/G,/ A,/B,/C/A,/ | %51
 B,/D,/G,,/D,/ B,/G,/A,/F,/ G,/E,/G,/A,/ B,/^C/D/B,/ | %52
 ^C/E,/G,,/E,/ C/A,/B,/D/ C/A,/D/B,/ C/A,/E/G,/ | F,>D A,/G,/F,/E,/ D,/A,/G,/E,/ F,/D,/A,/C,/ | %54
 B,,>G, D,/C,/B,,/A,,/ G,,/D,/C,/A,,/ B,,/G,,/D,/F,,/ | %55
 E,,/G,,/A,,/B,,/ ^C,/D,/E,/F,/ G,/A,/^C/D/ E/A,/G | D,/ G/F/E/ F/D/A,/D/ D,/F,/A,/C/ B,>A, | %57
 B,>A, G,/F,/E,/D/ ^C/E/A,/G,/ F,/D,/A,,/^C,/ | D,,>A,, D,/F,/A,/^C/ D/A,/F,/D,/ D,,>B, | %59
 B,2- B,/A,/G,/F,/ G,/D,/E,/F,/ G,/A,/B,/C/ | D/B,/G,/F,/ G,/E,/D,/C,/ B,,/C,/D,/E,/ F,/G,/A,/B,/ | %61
 C/A,/G,/F,/ G,/E,/F,/G,/ A,,/D,/F,/G,/ A,/B,/C/A,/ | %62
 B,/G,/G,/D,/ D,/B,,/B,,/G,,/ G,,>B, C/B,/A,/G,/ | A,/B,/C/A,/ G,/F,/G,/A,/ _E,>C B,/A,/G,/F,/ | %64
 G,/E,/E,/B,,/ B,,/G,,/G,,/E,,/ E,,>B,, E,/G,/F,/A,/ | %65
 G,/F,/E,/F,/ G,/^C/G,/F,/ G,/C/E,/F,/ G,/E,/A,,/G,/ | %66
 F,>E, F,/D,/G,/E,/ F,/D,/F,/G,/ A,/B,/C/A,/ | %67
 B,/D,/G,,/D,/ B,/G,/A,/F,/ G,/E,/G,/A,/ B,/^C/D/B,/ | %68
 ^C/E,/G,,/E,/ C/A,/B,/D/ C/A,/D/B,/ C/A,/E/G,/ | F,>D A,/G,/F,/E,/ D,/A,/G,/E,/ F,/D,/A,/C,/ | %70
 B,,>G, D,/C,/B,,/A,,/ G,,/D,/C,/A,,/ B,,/G,,/D,/F,,/ | %71
 E,,/G,,/A,,/B,,/ ^C,/D,/E,/F,/ G,/A,/^C/D/ E/A,/G | D,/ G/F/E/ F/D/A,/D/ D,/F,/A,/C/ B,>A, | %73
 B,>A, G,/F,/E,/D/ ^C/E/A,/G,/ F,/D,/A,,/^C,/ | D,,>A,, D,/F,/A,/^C/ D/A,/F,/D,/ D,,3/2 A,/ | %75
 A,2- A,/F,/G,/A,/ D,/E,/F,/G,/ A,/F,/D,/C,/ | B,,/D,/G,/F,/ G,/A,/B,/C/ D/B,/A,/G,/ =F,/E,/F,/D/ | %77
 E,C, C/A,,/B,,/C,/ D,,/ C/B,/C/ D/B,/C/A,/ | ^G,E, B,/D,/C,/B,,/ C,/E,/F,/G,/ A,/C/B,/A,/ | %79
 D B,,/C,/ D,/E,/=F,/A,,/ ^G,,>E, B,/D/C/B,/ | C>B, A,/G,/=F,/E,/ F,/D,/_B,/A,/ B,/C/D/A,/ | %81
 ^G,/A,/B,/E,/ =F,/D,/C,/B,,/ C,/E,/A,/B,/ B,>A, | A,>B, C/B,/C/G,/ F,/G,/A,/E,/ D,/C,/B,,/A,,/ | %83
 G,,/D,/F,/C/ B,/A,/G,/A,/ B,/C/D/E/ D/E/=F/D/ | EG, C,/D/C/B,/ A,/B,/C/E/ D>C | %85
 DA, B,,/C/B,/A,/ G,/F,/E,/G,/ B,/D/C/B,/ | CG, A,,/E,/F,/G,/ F,/A,/B,/C/ D,/C,/B,,/A,,/ | %87
 G,,/D,/F,/A,/ C/A,/F,/D,/ G,,>D, E,/G,/A,/^C/ | %88
 D/A,/F,/E,/ D,/=F,/G,/B,/ C/G,/E,/D,/ C,/E,/A,/C/ | %89
 F,/A,/C/E/ D>C, B,,/G,/A,,/G,,/ D,,/A,,/G,/F,/ | G,/G,,/B,,/D,/ G,/B,/D/F/ G/D/B,/G,/ G,,>A, | %91
 A,2- A,/F,/G,/A,/ D,/E,/F,/G,/ A,/F,/D,/C,/ | B,,/D,/G,/F,/ G,/A,/B,/C/ D/B,/A,/G,/ =F,/E,/F,/D/ | %93
 E,C, C/A,,/B,,/C,/ D,,/ C/B,/C/ D/B,/C/A,/ | ^G,E, B,/D,/C,/B,,/ C,/E,/F,/G,/ A,/C/B,/A,/ | %95
 D B,,/C,/ D,/E,/=F,/A,,/ ^G,,>E, B,/D/C/B,/ | C>B, A,/G,/=F,/E,/ F,/D,/_B,/A,/ B,/C/D/A,/ | %97
 ^G,/A,/B,/E,/ =F,/D,/C,/B,,/ C,/E,/A,/B,/ B,>A, | A,>B, C/B,/C/G,/ F,/G,/A,/E,/ D,/C,/B,,/A,,/ | %99
 G,,/D,/F,/C/ B,/A,/G,/A,/ B,/C/D/E/ D/E/=F/D/ | EG, C,/D/C/B,/ A,/B,/C/E/ D>C | %101
 DA, B,,/C/B,/A,/ G,/F,/E,/G,/ B,/D/C/B,/ | CG, A,,/E,/F,/G,/ F,/A,/B,/C/ D,/C,/B,,/A,,/ | %103
 G,,/D,/F,/A,/ C/A,/F,/D,/ G,,>D, E,/G,/A,/^C/ | %104
 D/A,/F,/E,/ D,/=F,/G,/B,/ C/G,/E,/D,/ C,/E,/A,/C/ | %105
 F,/A,/C/E/ D>C, B,,/G,/A,,/G,,/ D,,/A,,/G,/F,/ | G,/G,,/B,,/D,/ G,/B,/D/F/ G/D/B,/G,/ G,,3/2 z/ | %107
[M:3/4] z2 z2 z G, | G,D, G,,B,/C/ D/C/B,/A,/ | B,D, G,,G,/A,/ B,G, | E,C, C,,A,/B,/ C/B,/A,/G,/ | %111
 F,D, D,,D,/E,/ F,/G,/A,/B,/ | C/B,/C/A,/ C/B,/C/A,/ D,/C/B,/A,/ | %113
 B,/A,/B,/G,/ B,/A,/B,/G,/ C,/B,/A,/G,/ | F,/A,/D/D,/ G,B,, D,,F, | [G,,G,]3 B,/A,/ G,/F,/E,/D,/ | %116
 E^C A,B,/C/ D/F,/E,/D,/ | A,,D ^CB,/A,/ D/A,/B,/F,/ | G,/F,/G,/E,/ G,/F,/G,/E,/ A,,/G,/F,/E,/ | %119
 F,/E,/F,/D,/ F,/E,/F,/D,/ G,,/F,/E,/D,/ | D/^C/B,/A,/ DC/B,/ A,/G,/F,/E,/ | %121
 D,/E,/D,/F,/ D,/E,/D,/G,/ D,/E,/D,/A,/ | D,/E,/D,/B,/ D,/E,/D,/^C/ D,/E,/D,/D/ | %123
 G,/F,/E,/D,/ ^C,/B,,/A,,/G,/ F,>E, | A,/G,/B,/A,/ G,/F,/E,/D,/ A,,^C, | D,,4 z G, | %126
 G,D, G,,B,/C/ D/C/B,/A,/ | B,D, G,,G,/A,/ B,G, | E,C, C,,A,/B,/ C/B,/A,/G,/ | %129
 F,D, D,,D,/E,/ F,/G,/A,/B,/ | C/B,/C/A,/ C/B,/C/A,/ D,/C/B,/A,/ | %131
 B,/A,/B,/G,/ B,/A,/B,/G,/ C,/B,/A,/G,/ | F,/A,/D/D,/ G,B,, D,,F, | [G,,G,]3 B,/A,/ G,/F,/E,/D,/ | %134
 E^C A,B,/C/ D/F,/E,/D,/ | A,,D ^CB,/A,/ D/A,/B,/F,/ | G,/F,/G,/E,/ G,/F,/G,/E,/ A,,/G,/F,/E,/ | %137
 F,/E,/F,/D,/ F,/E,/F,/D,/ G,,/F,/E,/D,/ | D/^C/B,/A,/ DC/B,/ A,/G,/F,/E,/ | %139
 D,/E,/D,/F,/ D,/E,/D,/G,/ D,/E,/D,/A,/ | D,/E,/D,/B,/ D,/E,/D,/^C/ D,/E,/D,/D/ | %141
 G,/F,/E,/D,/ ^C,/B,,/A,,/G,/ F,>E, | A,/G,/B,/A,/ G,/F,/E,/D,/ A,,^C, | D,,4 z A, | %144
 A,F, D,E,/F,/ G,/F,/E,/D,/ | DF, C,B,,/C,/ D,/C,/B,,/A,,/ | B,,/G,/A,/B,/ C/B,/A,/G,/ F,D | %147
 B,G, G,,B,/A,/ C/B,/A,/G,/ | A,F, ^D,/A,/B,/C/ B,/A,/G,/F,/ | G,E, E,,G,/F,/ A,/G,/F,/E,/ | %150
 =F,/E,/F,/A,/ F,/E,/F,/A,/ C/B,/C/A,/ | ^D2- D/C/B,/A,/ G,/F,/A,/^D,/ | %152
 G,,B, A,/G,/F,/E,/ B,,^D, | E,,3 E,/F,/ G,/A,/B,/C/ | D=F, B,,E,/F,/ G,/F,/E,/D,/ | %155
 E,C, C,,C,/D,/ E,/F,/G,/E,/ | ^C,/G,/A,/G,/ A,/G,/C,/G,/ C,/G,/A,/G,/ | %157
 C,/F,/A,/F,/ A,/F,/C,/F,/ C,/F,/A,/F,/ | B,,/D,/E,/=F,/ G,,/F,/E,/D,/ E,/D/C/B,/ | %159
 F,/A,/B,/C/ D,/C/B,/A,/ B,G,, | C,,B,/A,/ C/B,/A,/G,/ D,F, | %161
 G,,/A,,/G,,/B,,/ G,,/A,,/G,,/C,/ G,,/A,,/G,,/D,/ | %162
 G,,/A,,/G,,/E,/ G,,/A,,/G,,/F,/ G,,/A,,/G,,/G,/ | C/B,/A,/G,/ F,/E,/D,/C/ B,>A, | %164
 D/C/D/B,/ D/C/D/B,/ E,/D/C/B,/ | C/B,/C/A,/ C/B,/C/A,/ D,/C/B,/A,/ | %166
 B,/A,/B,/G,/ C,/B,/A,/G,/ D,F, | [G,,G,]4 z A, | A,F, D,E,/F,/ G,/F,/E,/D,/ | %169
 DF, C,B,,/C,/ D,/C,/B,,/A,,/ | B,,/G,/A,/B,/ C/B,/A,/G,/ F,D | B,G, G,,B,/A,/ C/B,/A,/G,/ | %172
 A,F, ^D,/A,/B,/C/ B,/A,/G,/F,/ | G,E, E,,G,/F,/ A,/G,/F,/E,/ | %174
 =F,/E,/F,/A,/ F,/E,/F,/A,/ C/B,/C/A,/ | ^D2- D/C/B,/A,/ G,/F,/A,/^D,/ | %176
 G,,B, A,/G,/F,/E,/ B,,^D, | E,,3 E,/F,/ G,/A,/B,/C/ | D=F, B,,E,/F,/ G,/F,/E,/D,/ | %179
 E,C, C,,C,/D,/ E,/F,/G,/E,/ | ^C,/G,/A,/G,/ A,/G,/C,/G,/ C,/G,/A,/G,/ | %181
 C,/F,/A,/F,/ A,/F,/C,/F,/ C,/F,/A,/F,/ | B,,/D,/E,/=F,/ G,,/F,/E,/D,/ E,/D/C/B,/ | %183
 F,/A,/B,/C/ D,/C/B,/A,/ B,G,, | C,,B,/A,/ C/B,/A,/G,/ D,F, | %185
 G,,/A,,/G,,/B,,/ G,,/A,,/G,,/C,/ G,,/A,,/G,,/D,/ | %186
 G,,/A,,/G,,/E,/ G,,/A,,/G,,/F,/ G,,/A,,/G,,/G,/ | C/B,/A,/G,/ F,/E,/D,/C/ B,>A, | %188
 D/C/D/B,/ D/C/D/B,/ E,/D/C/B,/ | C/B,/C/A,/ C/B,/C/A,/ D,/C/B,/A,/ | %190
 B,/A,/B,/G,/ C,/B,/A,/G,/ D,F, | [G,,G,]4 z2 |[M:3/4] B,2 C3 B, | %193
 F,/A,/B,/C/ C/4B,/4C/4B,/4C/4B,/4C/4B,/4 A,G, | D=F, E,-E,/4D,/4C,/4B,,/4 C,E, | %195
 F,/C/B,/G,/ G,/4F,/4G,/4F,/4G,/4F,/4G,/4F,/4 E,D, | A,/F,/D,/C,/ B,,>G,, B,,/D,/G,/A,/ | %197
 B,/G,/E,/D,/ ^C,3/2A,,/4B,,/4 C,/D,/E,/F,/ | G,/^C/D/C/ D/A,/G,/F,/ E,/G,/F,/D,/ | %199
 A,,/D,/E,/^C,/ D,2 D,,2 | B,2 C3 B, | F,/A,/B,/C/ C/4B,/4C/4B,/4C/4B,/4C/4B,/4 A,G, | %202
 D=F, E,-E,/4D,/4C,/4B,,/4 C,E, | F,/C/B,/G,/ G,/4F,/4G,/4F,/4G,/4F,/4G,/4F,/4 E,D, | %204
 A,/F,/D,/C,/ B,,>G,, B,,/D,/G,/A,/ | B,/G,/E,/D,/ ^C,3/2A,,/4B,,/4 C,/D,/E,/F,/ | %206
 G,/^C/D/C/ D/A,/G,/F,/ E,/G,/F,/D,/ | A,,/D,/E,/^C,/ D,2 D,,2 | F,E,/D,/ C3 B,/A,/ | %209
 B,/F,/G,/E,/ ^D,>E, F,/G,/A,/B,/ | ^D,/A,/B,/C/ B,A,/G,/ F,/E,/A,/F,/ | G,/E,/F,/^D,/ E,2 E,,2 | %212
 D,3/2E,/4=F,/4 E,>^F, G,/A,/B,/C/ | ^G,,/D/C/B,/ C>B, A,/G,/F,/E,/ | %214
 D,2- D,/E,/F,/G,/ A,/C/B,/G,/ | D,/G,/A,/F,/ G,2 G,,2 | F,E,/D,/ C3 B,/A,/ | %217
 B,/F,/G,/E,/ ^D,>E, F,/G,/A,/B,/ | ^D,/A,/B,/C/ B,A,/G,/ F,/E,/A,/F,/ | G,/E,/F,/^D,/ E,2 E,,2 | %220
 D,3/2E,/4=F,/4 E,>^F, G,/A,/B,/C/ | ^G,,/D/C/B,/ C>B, A,/G,/F,/E,/ | %222
 D,2- D,/E,/F,/G,/ A,/C/B,/G,/ | D,/G,/A,/F,/ G,2 G,,2 | z6 |[M:3/4] G,,D, B,2 A,B,/C/ | %226
 B,A, G,F, G,D, | E,G, CA, F,D | [G,,D,B,]4 [D,A,]2 | A,,F, C2 B,C/D/ | CB, A,G, F,E, | %231
 F,G,/A,/ G,F, E,F, | D,2 A,,2 D,,2 | G,,D, B,2 A,B,/C/ | B,A, G,F, G,D, | E,G, CA, F,D | %236
 [G,,D,B,]4 [D,A,]2 | A,,F, C2 B,C/D/ | CB, A,G, F,E, | F,G,/A,/ G,F, E,F, | D,2 A,,2 D,,2 | %241
 D,F, A,2 G,A,/B,/ | A,G, F,E, D,F, | B,,D, ^G,A, B,D | A,,D CB, C2 | ^D,F, A,C B,A, | %246
 B,E, G,,A, CB, | A,G, F,E, B,,^D, | E,,3 E, D,C, | B,,D, G,2 D,E,/=F,/ | =F,D, E,C, C,,B,, | %251
 ^C,E, A,2 E,F,/G,/ | G,E, F,D, D,,A,, | D,F, A,C B,D | E,G, B,D CE | DF, G,B,, D,,F, | [G,,G,]6 | %257
 D,F, A,2 G,A,/B,/ | A,G, F,E, D,F, | B,,D, ^G,A, B,D | A,,D CB, C2 | ^D,F, A,C B,A, | %262
 B,E, G,,A, CB, | A,G, F,E, B,,^D, | E,,3 E, D,C, | B,,D, G,2 D,E,/=F,/ | =F,D, E,C, C,,B,, | %267
 ^C,E, A,2 E,F,/G,/ | G,E, F,D, D,,A,, | D,F, A,C B,D | E,G, B,D CE | DF, G,B,, D,,F, | [G,,G,]6 | %273
 ^A,=A, ^A,D, ^D,G,, | =F,,2 A,2 D,2 | G,F, G,^A,, C,^D,, | D,,A,, D,G, F,A, | %277
 ^A,=A, ^A,D, ^D,G,, | =F,,2 A,2 D,2 | G,F, G,^A,, C,E,, | D,,G, F,4 | ^A,=A, ^A,D, ^D,G,, | %282
 =F,,2 A,2 D,2 | G,F, G,^A,, C,^D,, | D,,A,, D,G, F,A, | ^A,=A, ^A,D, ^D,G,, | =F,,2 A,2 D,2 | %287
 G,F, G,^A,, C,E,, | D,,G, F,4 | D,F, A,C ^D=D | C^A, =A,^A, G,2 | C,E, G,^A, DC | %292
 ^A,=A, G,A, =F,^D, | D,=F, ^A,=A, ^A,D, | ^D,G, ^A,=A, ^A,D | C^D =D^A, =F,=A, | %296
 ^A,=F, D,^E, ^A,,2 | B,,D, =F,^G, =G,F, | ^D,G, CD ^D2 | A,,C, ^D,G, =F,D, | D,=F, ^A,C D2 | %301
 F,,A,, C,^D, =D,C, | ^A,,D, G,A, ^A,G, | C,^A, =A,G, D,F, | G,,6 | D,F, A,C ^D=D | %306
 C^A, =A,^A, G,2 | C,E, G,^A, DC | ^A,=A, G,A, =F,^D, | D,=F, ^A,=A, ^A,D, | ^D,G, ^A,=A, ^A,D | %311
 C^D =D^A, =F,=A, | ^A,=F, D,^E, ^A,,2 | B,,D, =F,^G, =G,F, | ^D,G, CD ^D2 | A,,C, ^D,G, =F,D, | %316
 D,=F, ^A,C D2 | F,,A,, C,^D, =D,C, | ^A,,D, G,A, ^A,G, | C,^A, =A,G, D,F, | G,,6 | %321
 G,,D, B,2 A,B,/C/ | B,A, G,F, G,D, | E,G, CA, F,D | [G,,D,B,]4 [D,A,]2 | A,,F, C2 B,C/D/ | %326
 CB, A,G, F,E, | F,G,/A,/ G,F, E,F, | D,2 A,,2 D,,2 | D,F, A,2 G,A,/B,/ | A,G, F,E, D,F, | %331
 B,,D, ^G,A, B,D | A,,D CB, C2 | ^D,F, A,C B,A, | B,E, G,,A, CB, | A,G, F,E, B,,^D, | %336
 E,,3 E, D,C, | B,,D, G,2 D,E,/=F,/ | =F,D, E,C, C,,B,, | ^C,E, A,2 E,F,/G,/ | G,E, F,D, D,,A,, | %341
 D,F, A,C B,D | E,G, B,D CE | DF, G,B,, D,,F, | [G,,G,]6 |[M:6/8][Q:1/4=176]"^Vivement" z4 z D, | %346
 G,D,E, E,C,D, | D,G,D, B,,G,,D, | G,/A,/B,A, A,/B,/CB, | %349
 [E,C]/4[D,B,]/4[E,C]/4[D,B,]/4[E,C]/4[D,B,]/4[E,C]/4[D,B,]/4[E,C]/4[D,B,]/4[E,C]/4[D,B,]/4 [D,A,]2 A, | %350
 B,F,G, G,E,G, | A,E,F, F,D,F, | G,B,G, E,B,,D, | ^C,E,A, A,,2 E, | =F,E,G, G,F,A, | %355
 A,G,^A, A,=A,G, | =F,E,D, A,,D,^C, | D,A,,F,, D,,2 D, | G,D,E, E,C,D, | D,G,D, B,,G,,D, | %360
 G,/A,/B,A, A,/B,/CB, | %361
 [E,C]/4[D,B,]/4[E,C]/4[D,B,]/4[E,C]/4[D,B,]/4[E,C]/4[D,B,]/4[E,C]/4[D,B,]/4[E,C]/4[D,B,]/4 [D,A,]2 A, | %362
 B,F,G, G,E,G, | A,E,F, F,D,F, | G,B,G, E,B,,D, | ^C,E,A, A,,2 E, | =F,E,G, G,F,A, | %367
 A,G,^A, A,=A,G, | =F,E,D, A,,D,^C, | D,A,,F,, D,,2 A, | A,F,G, G,E,F, | F,/G,/A,F, D,CB, | %372
 B,G,A, A,F,G, | G,/A,/B,G, E,DC | A,DC D,CB, | G,CB, C,B,A, | G,F,E, B,,E,^D, | E,B,,G,, E,,2 G, | %378
 A,F,G, ^C/D/EF, | G,E,=F, B,/C/DE, | =F,D,E, A,/B,/CA, | F,/G,/A,F, D,2 A, | ^A,=A,C C^A,D | %383
 DC^D D=DC | ^A,=A,G, D,G,F, | G,B,,/C,/D, G,,B,,D, | G,E,/=F,/G, B,,C,E, | A,F,/G,/A, ^C,D,F, | %388
 B,G,/A,/B, ^D,E,C | E,F,D F,G,E | D,E,/F,/G,/A,/ B,G,F, | G,D,B,, G,,2 A, | A,F,G, G,E,F, | %393
 F,/G,/A,F, D,CB, | B,G,A, A,F,G, | G,/A,/B,G, E,DC | A,DC D,CB, | G,CB, C,B,A, | G,F,E, B,,E,^D, | %399
 E,B,,G,, E,,2 G, | A,F,G, ^C/D/EF, | G,E,=F, B,/C/DE, | =F,D,E, A,/B,/CA, | F,/G,/A,F, D,2 A, | %404
 ^A,=A,C C^A,D | DC^D D=DC | ^A,=A,G, D,G,F, | G,B,,/C,/D, G,,B,,D, | G,E,/=F,/G, B,,C,E, | %409
 A,F,/G,/A, ^C,D,F, | B,G,/A,/B, ^D,E,C | E,F,D F,G,E | D,E,/F,/G,/A,/ B,G,F, | G,D,B,, G,,2 z |] %414
V:2
 x8 | x8 | x8 | x8 | x8 | x8 | x8 | x8 | x8 | x8 | x8 | x8 | x8 | x8 | x8 | x8 | x8 | x8 | x8 | %19
 x8 | x8 | x8 | x8 | x8 | x8 | x8 | x8 | x8 | x8 | x8 | x8 | x8 | x8 | x8 | x8 | x8 | x8 | x8 | %38
 x8 | x8 | x8 | x8 | x8 | [G,,D,]2 z2 z4 | x8 | x8 | x8 | x8 | x8 | x8 | x8 | x8 | x8 | x8 | x8 | %55
 x8 | x8 | [G,,D,]3/2 z/ z2 z4 | x8 | [G,,D,]2 z2 z4 | x8 | x8 | x8 | x8 | x8 | x8 | x8 | x8 | x8 | %69
 x8 | x8 | x8 | x8 | [G,,D,]3/2 z/ z2 z4 | x8 | D,2- D,/ z/ z z4 | x8 | x8 | x8 | x8 | %80
 [A,,E,]3/2 z/ z2 z4 | z4 z2 E,2 | [A,,E,]3/2 z/ z2 z4 | x8 | x8 | x8 | x8 | z4 [D,B,]3/2 z/ z2 | %88
 x8 | x8 | x8 | D,3/2 z/ z2 z4 | x8 | x8 | x8 | x8 | [A,,E,]3/2 z/ z2 z4 | z4 z2 E,2 | %98
 [A,,E,]3/2 z/ z2 z4 | x8 | x8 | x8 | x8 | z4 [D,B,]3/2 z/ z2 | x8 | x8 | x8 |[M:3/4] x6 | x6 | %109
 x6 | x6 | x6 | x6 | x6 | x6 | x6 | x6 | x6 | x6 | x6 | x6 | x6 | x6 | x6 | x6 | x6 | x6 | x6 | %128
 x6 | x6 | x6 | x6 | x6 | x6 | x6 | x6 | x6 | x6 | x6 | x6 | x6 | x6 | x6 | x6 | x6 | x6 | x6 | %147
 x6 | x6 | x6 | x6 | x6 | x6 | x6 | x6 | x6 | x6 | x6 | x6 | x6 | x6 | x6 | x6 | x6 | x6 | x6 | %166
 x6 | x6 | x6 | x6 | x6 | x6 | x6 | x6 | x6 | x6 | x6 | x6 | x6 | x6 | x6 | x6 | x6 | x6 | x6 | %185
 x6 | x6 | x6 | x6 | x6 | x6 | x6 |[M:3/4] G,,D, G,,E, z2 | z2 G,,D, z2 | x6 | z2 [D,,A,,] z z2 | %196
 x6 | x6 | x6 | x6 | G,,D, G,,E, z2 | z2 G,,D, z2 | x6 | z2 [D,,A,,] z z2 | x6 | x6 | x6 | x6 | %208
 [D,,A,,] z [D,,A,,] z z2 | [G,,D,] z A,,3/2 z/ z2 | x6 | x6 | B,,3/2 z/ [C,,G,,]3/2 z/ z2 | %213
 z2 [A,,E,]3/2 z/ z2 | z/ B,,/C,/A,,/ B,,/ z/ z z2 | x6 | [D,,A,,] z [D,,A,,] z z2 | %217
 [G,,D,] z A,,3/2 z/ z2 | x6 | x6 | B,,3/2 z/ [C,,G,,]3/2 z/ z2 | z2 [A,,E,]3/2 z/ z2 | %222
 z/ B,,/C,/A,,/ B,,/ z/ z z2 | x6 | x6 |[M:3/4] x6 | x6 | x6 | x6 | x6 | x6 | x6 | x6 | x6 | x6 | %235
 x6 | x6 | x6 | x6 | x6 | x6 | x6 | x6 | x6 | x6 | x6 | x6 | x6 | x6 | x6 | x6 | x6 | x6 | x6 | %254
 x6 | x6 | x6 | x6 | x6 | x6 | x6 | x6 | x6 | x6 | x6 | x6 | x6 | x6 | x6 | x6 | x6 | x6 | x6 | %273
 x6 | x6 | x6 | x6 | x6 | x6 | x6 | x6 | x6 | x6 | x6 | x6 | x6 | x6 | x6 | x6 | x6 | x6 | x6 | %292
 x6 | x6 | x6 | x6 | x6 | x6 | x6 | x6 | x6 | x6 | x6 | x6 | x6 | x6 | x6 | x6 | x6 | x6 | x6 | %311
 x6 | x6 | x6 | x6 | x6 | x6 | x6 | x6 | x6 | x6 | x6 | x6 | x6 | x6 | x6 | x6 | x6 | x6 | x6 | %330
 x6 | x6 | x6 | x6 | x6 | x6 | x6 | x6 | x6 | x6 | x6 | x6 | x6 | x6 | x6 |[M:6/8] x6 | x6 | x6 | %348
 x6 | x6 | x6 | x6 | x6 | x6 | x6 | x6 | x6 | x6 | x6 | x6 | x6 | x6 | x6 | x6 | x6 | x6 | x6 | %367
 x6 | x6 | x6 | x6 | x6 | x6 | x6 | x6 | x6 | x6 | x6 | x6 | x6 | x6 | x6 | x6 | x6 | x6 | x6 | %386
 x6 | x6 | x6 | x6 | x6 | x6 | x6 | x6 | x6 | x6 | x6 | x6 | x6 | x6 | x6 | x6 | x6 | x6 | x6 | %405
 x6 | x6 | x6 | x6 | x6 | x6 | x6 | x6 | x6 |] %414

